X: 11761
T: LADY MARY HAY'S SCOTCH MEASURE
C: Nathaniel Gow.
Q: "Slowly."
%R: air, reel, Scotch measure
B: W. Hamilton "Universal Tune-Book" Vol. 1 Glasgow 1844 p.176 #1
S: http://imslp.org/wiki/Hamilton's_Universal_Tune-Book_(Various)
Z: 2016 John Chambers <jc:trillian.mit.edu>
M: C
L: 1/8
K: Dm
% - - - - - - - - - - - - - - - - - - - - - - - - -
F>E |\
D2D2 A3F | D2A2 defg | agfd ecd=B | c2C2- C2F>E |\
D2D2 A3F | D2A2 defg | agfd eaA^c | d2D2D2 :|
f>e |\
d2d2 d3A | (d^cd)e fefd | efga gfed | e2c2- c2f>e |\
d2d2 d3A | d^cde fefd | efgb afge | f2d2- d2f>e |
d2D2 d3e | (fef)g agfd | efge agaf | e2c2- c2ag |\
fgag f>efd | efgf {g}ede^c | dBAG FdE^c | d2D2-D2 |]
|: F>E |\
DFAF Dd(^cd) | DdEd FdDc | defd ecd=B | c2C2- C2FE |\
Dd^cd DdEd | FdEd FdDA | (defd) eaA^c | d2D2-D2 :|
ag |\
f>ede fgag | fd^cd DdFd | Adfd f>gaf | efge c2ag |\
f>ede fgag | fd^cd Adfd | egab agfe | f2d2- d2ag |
f>ede fgag | fd^cd DdFd | Adfd f>gaf | efge c2ag |\
fdba geag | fdgf ed^cA | dBAG FdE^c | d2D2-D2 |]
% - - - - - - - - - - - - - - - - - - - - - - - - -

%%sep 1 1 500
%%sep 1 1 500

